public/assets/freshchat-2-icon.svg

<svg width="40" height="40" viewBox="0 0 40 40" fill="none" xmlns="http://www.w3.org/2000/svg">
<rect width="40" height="40" rx="4" fill="#DEF6E9"/>
<path d="M19.9584 7.55578H29.306C29.7193 7.5522 30.1292 7.63097 30.5117 7.78748C30.8943 7.94399 31.2418 8.17511 31.5341 8.46736C31.8263 8.75961 32.0575 9.10714 32.214 9.48966C32.3705 9.87219 32.4493 10.282 32.4457 10.6953V20.0427C32.4449 23.3316 31.138 26.4856 28.8123 28.8112C26.4866 31.1369 23.3325 32.4437 20.0435 32.4445H19.9729C18.3432 32.4464 16.729 32.127 15.2227 31.5048C13.7164 30.8826 12.3475 29.9696 11.1942 28.8181C10.0409 27.6665 9.12607 26.2988 8.50195 24.7933C7.87783 23.2878 7.5567 21.674 7.55692 20.0442C7.55692 13.1717 13.1002 7.62861 19.9591 7.55808L19.9584 7.55578Z" fill="#25C16F"/>
<path d="M19.9578 13.0992C18.4464 13.0992 16.9968 13.6996 15.9281 14.7684C14.8593 15.8371 14.2589 17.2866 14.2589 18.798V22.6728C14.2702 23.1719 14.4735 23.6474 14.8266 24.0004C15.1796 24.3534 15.6551 24.5567 16.1542 24.568H17.7666V20.1213H15.5891V18.8769C15.7218 16.5332 17.6608 14.7008 20.0084 14.7008C22.3561 14.7008 24.302 16.5409 24.4277 18.8769V20.1213H22.2219V24.568H23.6786V24.6386C23.6713 25.1013 23.4842 25.5431 23.157 25.8703C22.8297 26.1976 22.388 26.3846 21.9252 26.392H20.1848C20.0437 26.392 19.8881 26.4625 19.8881 26.6043C19.8957 26.7577 20.0238 26.8941 20.1848 26.901H21.9382C22.5371 26.8972 23.1104 26.6576 23.5339 26.2341C23.9574 25.8107 24.197 25.2374 24.2008 24.6386V24.4975C24.6166 24.4026 24.9876 24.1686 25.2524 23.8344C25.5173 23.5001 25.6602 23.0855 25.6575 22.659V18.8693C25.7365 15.6584 23.191 13.0992 19.9578 13.0992Z" fill="white"/>
</svg>

<svg xmlns="http://www.w3.org/2000/svg" width="40" height="40" fill="none" xmlns:v="https://vecta.io/nano"><rect width="40" height="40" rx="4" fill="#def6e9"/><path d="M19.958 7.556h9.348c.413-.004.823.075 1.206.232s.73.388 1.022.68.523.64.68 1.022a3.11 3.11 0 0 1 .232 1.206v9.347c-.001 3.289-1.308 6.443-3.633 8.769s-5.48 3.633-8.769 3.633h-.071c-1.63.002-3.244-.317-4.75-.94s-2.875-1.535-4.028-2.687-2.068-2.519-2.692-4.025-.945-3.119-.945-4.749c0-6.873 5.543-12.416 12.402-12.486l-.001-.002z" fill="#25c16f"/><path d="M19.958 13.099a5.7 5.7 0 0 0-5.699 5.699v3.875a1.94 1.94 0 0 0 1.895 1.895h1.612v-4.447h-2.177v-1.244c.133-2.344 2.072-4.176 4.419-4.176s4.294 1.84 4.419 4.176v1.244h-2.206v4.447h1.457v.071a1.78 1.78 0 0 1-1.753 1.753h-1.74c-.141 0-.297.07-.297.212.008.153.136.29.297.297h1.753c.599-.004 1.172-.243 1.596-.667s.663-.997.667-1.596v-.141c.416-.095.787-.329 1.052-.663s.408-.749.405-1.175v-3.79c.079-3.211-2.466-5.77-5.7-5.77z" fill="#fff"/></svg>
